assets/icons/favicon.svg

<?xml version="1.0" encoding="UTF-8"?>
<svg fill="none" viewBox="0 0 32 32" xmlns="http://www.w3.org/2000/svg">
<path d="m31.397 20.605h-3.8318c-5.8355 0-9.3668-2.0286-11.32-5.2344-0.4758-0.7763-1.6529-3.1807-1.6529-3.1807-0.2254-0.4007 0.0751-0.9016 0.551-0.9016h16.229c0.3506 0 0.6261-0.2755 0.6261-0.6261 0-5.8104-5.3846-8.6906-11.696-8.6906h-19.685c-0.47585 0-0.75135 0.5009-0.55099 0.90162l3.907 7.4885c0.22541 0.4007-0.07513 0.9016-0.55099 0.9016h-2.805c-0.47585 0-0.75135 0.5009-0.55099 0.9016l3.907 7.4884c0.22541 0.4008-0.07513 0.9017-0.55099 0.9017h-2.805c-0.47585 0-0.75135 0.5009-0.55099 0.9016 0 0 1.2272 2.4794 1.8032 3.4812 1.8283 3.0805 5.8104 4.9339 11.621 4.9339h17.882c0.3506 0 0.6261-0.2755 0.6261-0.6262v-8.0644c0.0251-0.2755-0.2504-0.5761-0.6011-0.5761zm-17.406-12.673c0-1.678 1.3775-3.0555 3.0555-3.0555s3.0555 1.3524 3.0555 3.0555c0 0.20036-0.1753 0.30054-0.3256 0.30054h-5.4348c-0.1753-0.02505-0.3506-0.12523-0.3506-0.30054z" fill="#E40521"/>
</svg>

<svg width="32" height="32" viewBox="0 0 32 32" fill="none" xmlns="http://www.w3.org/2000/svg">
<path d="M31.3973 20.6052H27.5655C21.73 20.6052 18.1987 18.5766 16.2451 15.3708C15.7693 14.5945 14.5922 12.1901 14.5922 12.1901C14.3668 11.7894 14.6673 11.2885 15.1432 11.2885H31.3723C31.7229 11.2885 31.9984 11.013 31.9984 10.6624C31.9984 4.85197 26.6138 1.9718 20.3024 1.9718H0.617099C0.141245 1.9718 -0.134249 2.4727 0.0661106 2.87342L3.97312 10.3619C4.19853 10.7626 3.89799 11.2635 3.42213 11.2635H0.617099C0.141245 11.2635 -0.134249 11.7644 0.0661106 12.1651L3.97312 19.6535C4.19853 20.0543 3.89799 20.5552 3.42213 20.5552H0.617099C0.141245 20.5552 -0.134249 21.0561 0.0661106 21.4568C0.0661106 21.4568 1.29331 23.9362 1.86935 24.938C3.69763 28.0185 7.67978 29.8719 13.4902 29.8719H31.3723C31.7229 29.8719 31.9984 29.5964 31.9984 29.2457V21.1813C32.0235 20.9058 31.748 20.6052 31.3973 20.6052ZM13.9911 7.9325C13.9911 6.25449 15.3686 4.87701 17.0466 4.87701C18.7246 4.87701 20.1021 6.22944 20.1021 7.9325C20.1021 8.13286 19.9268 8.23304 19.7765 8.23304H14.3417C14.1664 8.20799 13.9911 8.10781 13.9911 7.9325Z" fill="#E40521"/>
</svg>
